vendor/shopware/storefront/Resources/app/storefront/dist/assets/icon/solid/exclamationmark.svg

<svg xmlns="http://www.w3.org/2000/svg" width="16" height="16" viewBox="0 0 16 16">
  <path fill="#758CA3" fill-rule="evenodd" d="M8,13 C7.44771525,13 7,12.5522847 7,12 C7,11.4477153 7.44771525,11 8,11 C8.55228475,11 9,11.4477153 9,12 C9,12.5522847 8.55228475,13 8,13 Z M8,3 C8.55228475,3 9,3.44771525 9,4 L9,9 C9,9.55228475 8.55228475,10 8,10 C7.44771525,10 7,9.55228475 7,9 L7,4 C7,3.44771525 7.44771525,3 8,3 Z"/>
</svg>

<svg xmlns="http://www.w3.org/2000/svg" width="16" height="16" viewBox="0 0 16 16"><path fill="#758CA3" fill-rule="evenodd" d="M8 13c-.5523 0-1-.4477-1-1s.4477-1 1-1 1 .4477 1 1-.4477 1-1 1zM8 3c.5523 0 1 .4477 1 1v5c0 .5523-.4477 1-1 1s-1-.4477-1-1V4c0-.5523.4477-1 1-1z"/></svg>
